X:1
T:Still it frieth - Morley
T:#
%%score { 1 | 2 } 3 4
L:1/8
Q:1/4=120
M:4/4
K:F
V:1 treble nm="Soprano I"
V:2 treble 
V:3 treble nm="Alto"
V:4 treble-8 nm="Tenor"
V:1
 z4 c3 B | A2"^Still, It Frieth" F2 z4 | z2 F2 (AB) c2 | %3
w: Still, it|fri- eth,|yet my * heart|
 (Bc) d2 c2"^Thomas Morley\n(1557-1603)" B2 |[M:4/4] AB (c4 =B2) | c2 G2 B2 A2 | G2 E2 F2 c2 | %7
w: ne\- * ver di- eth,|ne- ver di\- *|eth, my heart ne-|ver di- eth, yet|
 (de) f2 (ef) g2 | f3 _e d2 c2 | c4 c4 | C2 (GA) B2 AB | c2 G2 c2 B2 | A2 F2 G2 A2 | %13
w: my * heart ne\- * ver|di- eth, ne- ver|di- eth,|yet my * heart ne- ver|di- eth, my heart|ne- ver di- eth,|
 G2 G2 AB (c2- | c2 BA G4) | A4 c4 | c2 _e3 e c2 | c4 z2 _e2 | d2 c2 =B2 c2 | z2 c2 d2 _e2 | %20
w: my heart ne- ver di\-||eth. Ah,|that my love hath|not some|mor- tal fir- ing,|some mor- tal|
 d2 c2 z2 c2 | c2 c2 c4 | c8 | z8 | f4 f2 _e2 | d2 c2 B4 | z4 F4 | F2 G2 A2 B2 | c4 z2 f2 | %29
w: fir- ing, some|mor- tal fir-|ing,||And that no|storms may quench,|and|that no storms may|quench his|
 f2 e2 (f_edc | d2 cB) A2 B2 | B2 A2 (Bcd_e) | f4 z4 | z2 F2 A3 B | c8 | c8 | f4 f2 _e2 | %37
w: heart in- spir\- * * *|* * * ing, his|heart in- spir\- * * *|ing,|his heart in|spir-|ing;|And that no|
 d2 c2 B4 | z4 F4 | F2 G2 A2 B2 | c4 z2 F2 | G2 A2 (F3 G | A2 G2) F2 f2 | f2 e2 (f_edc) | %44
w: storms may quench,|and|that no storms may|quench his|heart in- spir\- *|* * ing, his|heart in- spir\- * * *|
 (B2 c2) d2 z2 | z4 z2[Q:1/4=119] F2 |[Q:1/4=117] A3[Q:1/4=115] B[Q:1/4=114] (c2[Q:1/4=112] A2 | %47
w: * * ing,|his|heart in- spir\- *|
[Q:1/4=111] G2[Q:1/4=108] F4[Q:1/4=106] E2) |[Q:1/4=102] !fermata!F8 |] %49
w: |ing.|
V:2
 z8 | z4 c3 B | A2 F2 z4 | z8 |[M:4/4] z2 c2 (de) f2 | (ef) g2 f2 F2 | B2 G2 (cBAG | F4) G2 E2 | %8
w: |Still, it|fri- eth,||yet my * heart|ne\- * ver di- eth,|ne- ver di\- * * *|* eth, yet|
 F2 A2 B2 A2 | G4 A4 | z2 c2 (de) f2 | (ef) g2 f2 d2 | c4 c4 | c8- | c8 | c4 A4 | A2 B3 B A2 | %17
w: my heart ne- ver|di- eth,|yet my * heart|ne\- * ver di- eth,|ne- ver|di\-||eth. Ah,|that my love hath|
 G4 z2 c2 | d2 _e2 d2 c2 | z2 _e2 d2 c2 | =B2 c2 z2 _A2 | G2 F2 G4 | A8 | f4 f2 _e2 | d2 c2 B4 | %25
w: not some|mor- tal fir- ing,|some mor- tal|fir- ing, some|mor- tal fir-|ing,|And that no|storms may quench,|
 z4 F4 | F2 G2 A2 B2 | c4 z2 F2 | G2 A2 (F3 G | A2 G2) F2 f2 | f2 e2 (f_edc | B2 c2) d2 z2 | %32
w: and|that no storms may|quench his|heart in- spir\- *|* * ing, his|heart in- spir\- * * *|* * ing,|
 z4 z2 F2 | A3 B (c2 A2 | G2 F4 E2) | F8 | z8 | f4 f2 _e2 | d2 c2 B4 | z4 F4 | F2 G2 A2 B2 | %41
w: his|heart in- spir\- *||ing;||And that no|storms may quench,|and|that no storms may|
 c4 z2 f2 | f2 e2 (f_edc | d2 cB) A2 B2 | B2 A2 (Bcd_e) | f4 z4 | z2 F2 A3 B | c8 | !fermata!c8 |] %49
w: quench his|heart in- spir\- * * *|* * * ing, his|heart in- spir\- * * *|ing,|his heart in-|spir-|ing.|
V:3
 F3 G A2 F2 | z6 c2- | cB A2 F2 C2 | (DE) F2 (EF) G2 |[M:4/4] (F2 _E2) D2 D2 | (CD) E2 F2 F2 | %6
w: Still, it fri- eth,|still,|* it fri- eth, yet|my * heart ne\- * ver|di\- * eth, ne-|ver * di- eth, yet|
 (GA) B2 AB (c2- | c2 =B2) c4 | z2 F2 B,2 (F2 | F2 E2) F4 | z2 _E2 F4 | G4 (A2 F2) | %12
w: my * heart ne- ver di\-|* * eth,|ne- ver di\-|* * eth,|yet my|heart ne\- *|
 (FG) A2 (G2 F2) | E2 C2 C3 D | E2 (F4 E2) | F4 F4 | F2 G3 G F2 | E2 _E2 D2 C2 | =B,2 C2 z2 _E2 | %19
w: * * ver di\- *|eth, my heart ne-|ver di\- *|eth. Ah,|that my love hath|not some mor- tal|fir- ing, some|
 D2 C2 =B,2 C2 | z2 _A2 G2 F2 | (E2 F4 E2) | F8 | z4 F4 | F2 _E2 D2 C2 | B,4 z4 | F4 F2 G2 | %27
w: mor- tal fir- ing,|some mor- tal|fir\- * *|ing,|And|that no storms may|quench,|and that no|
 A2 B2 c4 | z2 c2 c2 =B2 | c4 A2 A2 | B2 G2 (F4 | G2 _E2) F2 B,2 | D3 _E (F2 D2) | C6 D2 | %34
w: storms may quench|his heart in-|spir- ing, his|heart in- spir\-|* * ing, his|heart in- spir\- *|ing, his|
 E2 F2 G4 | A8 | z4 F4 | F2 _E2 D2 C2 | B,4 z4 | F4 F2 G2 | A2 B2 c4 | z2 c2 c2 =B2 | c4 A2 A2 | %43
w: heart in- spir-|ing;|And|that no storms may|quench,|and that no|storms may quench|his heart in-|spir- ing, his|
 B2 G2 F4 | (G2 _E2) F2 B,2 | D3 _E (F2 D2) | C6 D2 | E2 F2 G4 | !fermata!A8 |] %49
w: heart in- spir\-|* * ing, his|heart in- spir\- *|ing, his|heart in- spir-|ing.|
V:4
 z8 | F3 G A2 F2 | z4 F3 _E | D2 C2 z4 |[M:4/4][K:treble-8] z8 | z2 C2 (DE) F2 | (EF) G2 F3 _E | %7
w: |Still, it fri- eth,|still, it|fri- eth,||yet my * heart|ne- * ver di- eth,|
 D2 D2 C4 | F4 z4 | z4 z2 F2 | (AB) c2 (Bc) d2 | (c3 B A2 B2) | F4 E2 F2 | C2 c2 A2 F2 | c8 | %15
w: ne- ver di-|eth,|yet|my * heart ne\- * ver|di\- * * *|* eth, yet|my heart ne- ver|di-|
 F4 F4 | F2 _E3 E F2 | C2 c2 =B2 c2 | G2 C2 z2 c2 | =B2 c2 G2 C2 | z2 F2 E2 F2 | C8 | F4 f4 | %23
w: eth. Ah,|that my love hath|not some mor- tal|fir- ing, some|mor- tal fir- ing,|some mor- tal|fir-|ing, And|
 f2 _e2 d2 c2 | B4 z4 | B,4 B,2 C2 | D2 _E2 F4- | F4 F4 | E2 F2 D4 | C4 z2 F2 | B2 c2 (d2 B2 | %31
w: that no storms may|quench,|and that no|storms may quench|* his|heart in- spir-|ing, his|heart in- spir\- *|
 _e2 c2) B4 | z2 B,2 D3 _E | (F8 | C8) | F4 f4 | f2 _e2 d2 c2 | B4 z4 | B,4 B,2 C2 | D2 _E2 F4- | %40
w: * * ing,|his heart in-|spir\-||ing; And|that no storms may|quench,|and that no|storms may quench|
 F4 F4 | E2 F2 D4 | C4 z2 F2 | B2 c2 (d2 B2) | (_e2 c2) B4 | z2 B,2 D3 _E | (F8 | C8) | %48
w: * his|heart in- spir-|ing, his|heart in- spir\- *|* * ing,|his heart in-|spir\-||
 !fermata!F8 |] %49
w: ing.|

